X:159
T:Trip to Bath
M:2/4
L:1/8
B:Thompson's Compleat Collection of 200 Favourite Country Dances, vol. 1 (London, 1757)
Z:Transcribed and edited by Flynn Titford-Mock, 2007
Z:abc's:AK/Fiddler's Companion
K:G
d|B G2A|B3 c|dgdB|ceAc|B G2 d|Bgbg|fd "tr"e2|d3:|
|:d|dBdB|ceAc|BdGB|AFED|dBdB|ec "tr"c2|fdef|
g3 d|B G2 A|B3 c|dgdB|ceAc|B G2 d|B g2 e|dBcA|G3:|

